X:1571
T:McGoldrick's
O:ireland
R:reel
Z:id:hn-reel-805
M:C|
L:1/8
K:D
d2Ad cdAd|(3Bcd ef gefe|d2Ad cdAF|GEEF GABc|
d2Ad cdAd|(3Bcd ef g2fg|afge fdec|dAAF GABc||
d2fd Adfd|d2fa gece|d2fd Adfd|ceAc eAce|
d2fd Adfd|(3Bcd ef g2fg|agfe fdec|dAAF GABc||
